!! 00000] TT[00
!! NN
!!!OTL: Huzi diao
!!!ARE: Asia, China,ÿAnhui, Bengbu
!! Ethnic Group: Han
!! III, 591
!!!SCT: C0354
!!!YEM: Copyright 1995, estate of Helmut Schaffrath.
**kern
*ICvox
*Ivox
*M2/4
*k[f#]
*G:
{8dd
8dd
8ee
16dd
16b
=1
4a
16g
8.e
=2
4a
16g
8.e}
=3
{8dd
8a
8ee
16dd
16b
=4
4a
16g
8.ee
=5
4a
16g
8.e}
=6
{8e
16e
16g
8e
16e
16g
=7
4a
8a
8e
=8
8g
16e
16g
8a
16a
16g
=9
8.g
16e
4d}
==
!!!AGN: Xiaodiao. Yule wanshua
!! Phrase 3 ist textunterlegt.,  Streichen? ) Wenig Verzierungen, Glissan
!!    di.
!!!ONB: ESAC (Essen Associative Code) Database: CHINA
!!!AMT: simple duple
!!!AIN: vox
!!!EED: Helmut Schaffrath
!!!EEV: 1.0
*-
